!!!OTL: Schlacht bei der Conzerbr&uuml;ck, S.44
!!!id: L0036
**kern
*clefG2
*k[b-e-]
*B-:
{8cc
=1
4dd
4g
4f
4b-
=2
4dd
4cc
4b-}
8r
=3
{8cc
=4
4dd
4g
4f
4b-
=5
4dd
4cc
4b-}
8r
=6
{8a
=7
8b-
8cc
8b-
8a
4g
8f
8f
=8
8b-
8cc
8b-
8b-
4g
8f}
=9
{8f
=10
4cc
4cc
4.cc
8dd
=11
8ee-
8dd
8ee-
8cc
4dd}
8r
=12
{8cc
=13
4dd
4g
4f
4b-
=14
4dd
4cc
4b-}
8r
==
*-
!!!minrhy: 8
!!!meters: 4/4 ]  ZZ[5
!!!cut: Schlacht bei der Conzerbr&uuml;ck, S.44
!!!reg: Luxemburg
!!!trd: Die Luxemburger Volkslieder &auml;lterer Zeit, Luxemburg 1904 posth.
!!!rhy1: X  X_X_X_X_  X_X_X_0
!!!rhy2: X  X_X_X_X_  X_X_X_0
!!!key: L0036  08 Bb 4/4 ]  ZZ[5
!!!mod: HEPTATONIK IONISCH]  AMBITUS[7b
!!!kad: 11-531
!!!akz: 3-531_3-531_1-61-6_2243_3-531_
!!!fot: 'a__a__b__c__a__
!!!for: 'a__a__b__c__a__
!!!fok: 'Sd_Sd_Md_/__Sd_
!! PHRAS[AUFTAKTIG]
!!!fkt: Kriegslied, Klagelied, geschichtliches Lied
!! FONTAINE, Ed.:
!! PR[4] 2K[11] 2G[24] 3K[9] 3G[4] 4A[4] 4Ü[0] 5A[0] 6K[0] 6G[0]
!! 7K[0] 7G[0] 8A[0] MEHR[0] SI[53] ABS[45] SR[36] SP[18]
!! ST[14] 2k[11] 2g[13] 3k[4] 3g[7] 4d[4] 4ü[0] 5d[2] 6k[0] 6g[0]
!! 7k[0] 7g[0] 8d[0] mehr[0] si[42] dm[+11] sr[24] sp[18]
!! 1F[8] 2F[73] 3F[18] 4F[0] LF[0] 2P[0] 3P[0] 4P[0] TRI[0] DF[3] AB[49]
!! TF[0] U3K[0] U3[0] U4[0] U4Ü[0] U5[4] U6K[0] U6[0] U7K[0] U7[4]
!! N1[22] N2K[0] N2[22] N3K[0] N3[30] N4[9] N4Ü[0] N5[9] N6K[0] N6[0]
!!!n7k: 0] N7[0] O1[0] O2K[0] O2[0] O3K[0] O3[0] HÖ[0
!!!RNB: symbol: &auml;      = a umlaut  (UTF-8: Å„)
!!!RNB: symbol: &uuml;  = u umlaut (UTF-8: Ã¼)
